X: 5
T: Lea Rig, The
Z: Weejie
S: https://thesession.org/tunes/13977#setting25219
R: reel
M: 4/4
L: 1/8
K: Gmaj
B>A|G<BD2D2E>F|G3AG2zB|A>GA>B c>BA>G|(3GAB E2E2B>A|
(3GAB D2D2E>F|G3AG2zd|edef (3efg d>c|B<dG2G2:|
|:d2|e>de>f gz2B|c>Bc>d ez2G|A3B c>BA>G|(3GAB E2E2 B>A|
G<BD2D2E>F|G3AG2zd2|edef e<g d<c|B<dG2G2:|]
